themes/coffeedesign/images/icon-coffeedesign.svg

<svg xmlns="http://www.w3.org/2000/svg" xmlns:xlink="http://www.w3.org/1999/xlink" xmlns:sketch="http://www.bohemiancoding.com/sketch/ns" width="99px" height="136px" viewBox="0 0 99 136" version="1.1"><style>.style0{fill:	none;fill-rule:	evenodd;}.style1{fill:	#F7F7F7;}</style><title>Untitled 2</title><description>Created with Sketch (http://www.bohemiancoding.com/sketch)</description><defs/><g sketch:type="MSPage" class="style0"><g sketch:type="MSLayerGroup" class="style1"><path d="M30.5005223 40 C29.1888492 40 28.1 39 28 37.7 C27.5997068 26.3 30.3 23.7 35.4 19.8 C36.5764696 18.9 37.9 17.8 39.4 16.5 C45.3356712 11 44 3.2 43.9 2.9 C43.6834676 1.6 44.6 0.3 45.9 0 C47.2259308 -0.2 48.5 0.7 48.8 2 C48.8355681 2.4 50.7 12.7 42.7 20.1 C41.1105703 21.5 39.7 22.7 38.4 23.6 C34.2857712 26.8 32.6 28.1 33 37.5 C33.0087818 38.8 32 39.9 30.6 40 C30.5667365 40 30.5 40 30.5 40" sketch:type="MSShapeGroup"/><path d="M47.4113855 41 C46.1326828 41 45.1 40 45 38.7 C44.7375952 30 46.6 27.9 49.9 25 C50.6808829 24.2 51.5 23.5 52.4 22.5 C55.9932419 18.7 55.1 12.9 55.1 12.8 C54.9274011 11.5 55.8 10.2 57.1 10 C58.4036348 9.8 59.6 10.7 59.8 12 C59.8936681 12.4 61.1 20.2 55.9 25.9 C54.8125475 27 53.9 27.9 53.1 28.6 C50.5185566 30.9 49.6 31.7 49.8 38.5 C49.8416864 39.8 48.8 41 47.5 41 C47.4665152 41 47.4 41 47.4 41" sketch:type="MSShapeGroup"/><path d="M99 85.5 C99 78.8 97.1 74.3 93.3 72.1 C90.3181689 70.4 86.5 70.3 81.9 71.7 C81.0719955 72 80.3 72.2 79.6 72.5 C79.6081349 72.1 79.7 71.7 79.7 71.2 C80.7679989 59.8 80.7 51.7 80.7 51.4 L80.655754 49 L0 49 L0.0857426304 51.5 C2.59098639 125 25.5 135.4 26.5 135.8 L26.9075964 136 L55.0483277 136 L55.7155612 135.5 C62.0496032 130.3 67.3 122.2 71.3 111.4 C81.0439342 110.2 99 103.3 99 85.5 L99 85.5 Z M76 54 C75.9609048 56.6 75.8 61 75.4 66.4 C65.1456103 73.4 52 70.9 39.3 68.5 C37.2003656 68.1 35.2 67.7 33.2 67.4 C22.6663363 65.5 11.8 67.1 5.9 68.2 C5.51136514 63.8 5.2 59.1 5 54 L76 54 L76 54 Z M52.6808714 131 L27.4975248 131 C25.0604768 129.5 10.9 118.9 6 72.7 C11.3379263 71.6 21.9 70.1 31.8 71.7 C33.7522528 72.1 35.7 72.4 37.8 72.8 C44.277632 74.1 51.2 75.4 57.9 75.4 C63.4885822 75.4 68.9 74.5 74 72 C72.9172123 82.9 71.2 92.8 68.7 101.4 C64.8537014 115.2 59.5 125.2 52.7 131 L52.6808714 131 Z M82.5436137 103.5 C78.970405 105.4 75.4 106.5 73 107 C73.3380062 105.9 73.7 104.8 74 103.7 C76.0607477 96.2 77.7 87.8 78.8 78.6 C81.0327103 77.4 87.2 74.7 90.7 76.7 C92.894081 78 94 81.1 94 86 C94 93.6 90.1 99.5 82.5 103.5 L82.5436137 103.5 Z" sketch:type="MSShapeGroup"/></g></g></svg>

<svg xmlns="http://www.w3.org/2000/svg" xmlns:sketch="http://www.bohemiancoding.com/sketch/ns" width="99" height="136" viewBox="0 0 99 136"><style>.style0{fill: none;fill-rule: evenodd;}.style1{fill: #F7F7F7;}</style><title>Untitled 2</title><g sketch:type="MSLayerGroup" class="style1"><path d="M30.501 40c-1.312 0-2.401-1-2.501-2.3-.4-11.4 2.3-14 7.4-17.9 1.176-.9 2.5-2 4-3.3 5.936-5.5 4.6-13.3 4.5-13.6-.217-1.3.7-2.6 2-2.9 1.326-.2 2.6.7 2.9 2 .036.4 1.9 10.7-6.1 18.1-1.589 1.4-3 2.6-4.3 3.5-4.114 3.2-5.8 4.5-5.4 13.9.009 1.3-1 2.4-2.4 2.5h-.1M47.411 41c-1.279 0-2.311-1-2.411-2.3-.262-8.7 1.6-10.8 4.9-13.7.781-.8 1.6-1.5 2.5-2.5 3.593-3.8 2.7-9.6 2.7-9.7-.173-1.3.7-2.6 2-2.8 1.304-.2 2.5.7 2.7 2 .094.4 1.3 8.2-3.9 13.9-1.087 1.1-2 2-2.8 2.7-2.581 2.3-3.5 3.1-3.3 9.9.042 1.3-1 2.5-2.3 2.5h-.1" sketch:type="MSShapeGroup"/><path d="M99 85.5c0-6.7-1.9-11.2-5.7-13.4-2.982-1.7-6.8-1.8-11.4-.4-.828.3-1.6.5-2.3.8.008-.4.1-.8.1-1.3 1.068-11.4 1-19.5 1-19.8l-.044-2.4h-80.656l.086 2.5c2.505 73.5 25.414 83.9 26.414 84.3l.408.2h28.141l.667-.5c6.334-5.2 11.584-13.3 15.584-24.1 9.744-1.2 27.7-8.1 27.7-25.9zm-23-31.5c-.039 2.6-.2 7-.6 12.4-10.254 7-23.4 4.5-36.1 2.1-2.1-.4-4.1-.8-6.1-1.1-10.534-1.9-21.4-.3-27.3.8-.389-4.4-.7-9.1-.9-14.2h71zm-23.319 77h-25.183c-2.437-1.5-16.598-12.1-21.498-58.3 5.338-1.1 15.9-2.6 25.8-1 1.952.4 3.9.7 6 1.1 6.478 1.3 13.4 2.6 20.1 2.6 5.589 0 11-.9 16.1-3.4-1.083 10.9-2.8 20.8-5.3 29.4-3.846 13.8-9.2 23.8-16 29.6h-.019zm29.863-27.5c-3.573 1.9-7.144 3-9.544 3.5.338-1.1.7-2.2 1-3.3 2.061-7.5 3.7-15.9 4.8-25.1 2.233-1.2 8.4-3.9 11.9-1.9 2.194 1.3 3.3 4.4 3.3 9.3 0 7.6-3.9 13.5-11.5 17.5h.044z" sketch:type="MSShapeGroup"/></g></svg>
